X:1
T:Title
%%score { ( 1 3 ) | ( 2 4 ) }
L:1/8
M:9/8
K:C
V:1 treble nm="Grand Piano"
V:3 treble 
V:2 bass 
V:4 bass 
V:1
 z3 z3[Q:1/4=104] [EG]3 | [EG]3- [EG][_E^F][=EG] [_Ec][EB][EA] | [EG]3 [CE]3 [Ec]3 | %3
 [FB]3- [FB][FA][EG] [G,DF][G,CE][G,B,D] |[M:3/4] [G,CE]6 |[M:3/8] [CEG]3 | %6
[M:9/8] [CEA]3- [CEA][CEA][CEA] [DEB][DEB][DEB] | [Ec]3 [Gd]3 [Ge]3 | %8
 [Gd]3- [Gd][Ge][Gd] [^Fc][FB][FA] |[M:5/8] G-G- G3 |[M:2/4] GG GG |[M:9/8] d3 B2 A GAB | %12
 [Ec]3 [EG]3 G3 | .e6 z3 | [Gd]6 z3 | .e6 z3 | [EG][CE][FA] [EG]3 [Ec]3 | .[Fd]6 z3 | %18
[M:3/4] [Ec]6 |] %19
V:2
 z3 z3 [C,C]3 | [C,C]3- [C,C][C,C][C,G,] [C,^F,][C,F,][C,A,] | [C,C]3 [C,G,]3 [C,G,]3 | %3
 [D,G,]3- [D,G,][D,G,]G, G,,G,,G,, |[M:3/4] C,6 |[M:3/8] C,3 | %6
[M:9/8] A,,3- A,,A,,A,, [^G,,E,][G,,E,][G,,E,] | [A,C]3 [G,B,]3 [C,C]3 | %8
 [D,B,]3- [D,B,][D,B,][D,B,] [D,A,][D,D][D,C] |[M:5/8] [G,B,]-[G,B,]- [G,B,]3 | %10
[M:2/4][K:treble] [G,B,F][G,B,F] [G,B,F][G,B,F] | %11
[M:9/8] [G,B,F]3 [G,DF]2 [G,CF] [G,B,F][G,CF][G,DF] | [C,C]3 [C,C]3[K:treble] E3 | .G6[K:bass] z3 | %14
 [G,B,]G,G, G,3 z3 | .G6 z3 | [C,C][C,G,][C,C] [C,C]3 [C,G,]3 | %17
 [G,B,]2 G, G,[K:treble][G,B,F][G,DF] [G,DF][G,B,F][G,F] |[M:3/4][K:bass] [C,G,]6 |] %19
V:3
 x9 | x9 | x9 | x9 |[M:3/4] x6 |[M:3/8] x3 |[M:9/8] x9 | x9 | x9 |[M:5/8] x5 |[M:2/4] x4 | %11
[M:9/8] x9 | x9 | z2 C C[Fd][Ec] [Gc][FB][Ec] | z B,B, B,3 G3 | z2 C C[Gd][Gc] [Ac][GB][FA] | x9 | %17
 z2 B, B,Ac BGd |[M:3/4] x6 |] %19
V:4
 x9 | x9 | x9 | x9 |[M:3/4] x6 |[M:3/8] x3 |[M:9/8] x9 | x9 | x9 |[M:5/8] x5 | %10
[M:2/4][K:treble] x4 |[M:9/8] x9 | x6[K:treble] x3 | z2[K:bass] C, C,[C,C][C,G,] [E,C][D,G,][C,C] | %14
 x9 | z2 C, C,[D,B,][E,C] [F,C][F,C][F,C] | x9 | x4[K:treble] x5 |[M:3/4][K:bass] x6 |] %19

